assets/tokens/vksm.svg

<svg width="64" height="64" viewBox="0 0 64 64" fill="none" xmlns="http://www.w3.org/2000/svg">
<rect width="64" height="64" rx="32" fill="white"/>
<path d="M51.4159 20.3916C50.7565 19.8902 49.9622 19.2015 48.5288 19.0216C47.1756 18.8516 45.8047 19.7238 44.8754 20.3029C43.9461 20.8807 42.1882 22.5834 41.4575 23.0971C40.7281 23.6109 38.8696 24.0926 35.8832 25.8273C32.8968 27.562 21.1499 34.8506 21.1499 34.8506L24.2025 34.8826L10.597 41.6908H11.9578L10 43.136C10 43.136 11.7249 43.5856 13.185 42.6863L13.19 43.0928C13.19 43.0928 29.4025 36.9081 32.5442 38.5134L30.6386 39.058C30.8041 39.058 33.891 39.2514 33.891 39.2514C33.891 39.2514 33.9903 41.1142 35.8488 42.3019C37.7073 43.4895 37.7404 44.1327 37.7404 44.1327C37.7404 44.1327 36.7781 44.5183 36.7781 45C36.7781 45 38.2051 44.5823 39.5328 44.6144C40.8605 44.6464 42.0214 45 42.0214 45C42.0214 45 41.9221 44.4862 40.6275 44.1327C39.3342 43.7803 38.0727 42.4312 37.4413 41.692C36.8112 40.9528 36.3873 39.637 36.9143 38.32C37.3624 37.2025 38.9128 36.5841 42.1194 34.98C45.9039 33.0888 46.7657 31.672 47.2966 30.5804C47.8274 29.4888 48.6243 27.3045 49.0634 26.277C49.6261 24.9599 50.316 24.254 50.88 23.8363C51.4439 23.4187 54 22.4873 54 22.4873C54 22.4873 52.0511 20.8733 51.4159 20.3916Z" fill="#1B2026"/>
<mask id="path-4-outside-1_19740_130672" maskUnits="userSpaceOnUse" x="40" y="40" width="24" height="24" fill="black">
<rect fill="white" x="40" y="40" width="24" height="24"/>
<path d="M62 52C62 57.5228 57.5228 62 52 62C46.4772 62 42 57.5228 42 52C42 46.4772 46.4772 42 52 42C57.5228 42 62 46.4772 62 52Z"/>
</mask>
<path d="M62 52C62 57.5228 57.5228 62 52 62C46.4772 62 42 57.5228 42 52C42 46.4772 46.4772 42 52 42C57.5228 42 62 46.4772 62 52Z" fill="url(#paint0_linear_19740_130672)"/>
<path d="M60 52C60 56.4183 56.4183 60 52 60V64C58.6274 64 64 58.6274 64 52H60ZM52 60C47.5817 60 44 56.4183 44 52H40C40 58.6274 45.3726 64 52 64V60ZM44 52C44 47.5817 47.5817 44 52 44V40C45.3726 40 40 45.3726 40 52H44ZM52 44C56.4183 44 60 47.5817 60 52H64C64 45.3726 58.6274 40 52 40V44Z" fill="white" mask="url(#path-4-outside-1_19740_130672)"/>
<path d="M51.5842 56.376L47.5184 50.2774C47.2969 49.9451 47.5351 49.5 47.9344 49.5H49.7422C49.904 49.5 50.0559 49.5783 50.1497 49.7102L51.5927 51.7395C51.792 52.0198 52.2083 52.0198 52.4077 51.7395L53.8507 49.7102C53.9445 49.5783 54.0963 49.5 54.2582 49.5H56.0659C56.4653 49.5 56.7035 49.9451 56.4819 50.2773L52.4162 56.376C52.2183 56.6728 51.7821 56.6728 51.5842 56.376Z" fill="white"/>
<path fill-rule="evenodd" clip-rule="evenodd" d="M41.7562 58.2534C38.7182 59.3828 35.4312 60 32 60C16.536 60 4 47.464 4 32C4 16.536 16.536 4 32 4C47.464 4 60 16.536 60 32C60 35.4312 59.3828 38.7182 58.2534 41.7562C59.4738 42.5028 60.5505 43.4614 61.4322 44.5807C63.085 40.719 64 36.4664 64 32C64 14.3269 49.6731 0 32 0C14.3269 0 0 14.3269 0 32C0 49.6731 14.3269 64 32 64C36.4664 64 40.719 63.085 44.5807 61.4322C43.4614 60.5505 42.5028 59.4738 41.7562 58.2534Z" fill="url(#paint1_linear_19740_130672)"/>
<defs>
<linearGradient id="paint0_linear_19740_130672" x1="52" y1="42" x2="52" y2="62" gradientUnits="userSpaceOnUse">
<stop stop-color="#7AEDCF"/>
<stop offset="0.201333" stop-color="#68CEFA"/>
<stop offset="0.403244" stop-color="#689CF8"/>
<stop offset="0.602076" stop-color="#AC57C0"/>
<stop offset="0.801867" stop-color="#E65659"/>
<stop offset="1" stop-color="#F2C241"/>
</linearGradient>
<linearGradient id="paint1_linear_19740_130672" x1="32.0001" y1="0" x2="32.0001" y2="64" gradientUnits="userSpaceOnUse">
<stop stop-color="#7AEDCF"/>
<stop offset="0.201333" stop-color="#68CEFA"/>
<stop offset="0.403244" stop-color="#689CF8"/>
<stop offset="0.602076" stop-color="#AC57C0"/>
<stop offset="0.801867" stop-color="#E65659"/>
<stop offset="1" stop-color="#F2C241"/>
</linearGradient>
</defs>
</svg>

<svg viewBox="0 0 64 64" fill="none" xmlns="http://www.w3.org/2000/svg">
    <rect width="64" height="64" rx="32" fill="#fff"/>
    <path d="M51.416 20.392c-.66-.502-1.454-1.19-2.887-1.37-1.353-.17-2.724.702-3.654 1.28-.929.579-2.687 2.281-3.417 2.795-.73.514-2.588.996-5.575 2.73-2.986 1.735-14.733 9.024-14.733 9.024l3.053.032-13.606 6.808h1.36L10 43.136s1.725.45 3.185-.45l.005.407s16.212-6.185 19.354-4.58l-1.905.545c.165 0 3.252.193 3.252.193s.1 1.863 1.958 3.05c1.858 1.188 1.891 1.832 1.891 1.832s-.962.385-.962.867c0 0 1.427-.418 2.755-.386 1.328.032 2.488.386 2.488.386s-.099-.514-1.394-.867c-1.293-.353-2.554-1.702-3.186-2.441a3.361 3.361 0 0 1-.527-3.372c.448-1.117 1.999-1.736 5.205-3.34 3.785-1.891 4.647-3.308 5.178-4.4.53-1.091 1.327-3.275 1.766-4.303.563-1.317 1.253-2.023 1.817-2.44.564-.418 3.12-1.35 3.12-1.35s-1.949-1.614-2.584-2.095Z" fill="#1B2026"/>
    <mask id="b" maskUnits="userSpaceOnUse" x="40" y="40" width="24" height="24" fill="#000">
        <path fill="#fff" d="M40 40h24v24H40z"/>
        <path d="M62 52c0 5.523-4.477 10-10 10s-10-4.477-10-10 4.477-10 10-10 10 4.477 10 10Z"/>
    </mask>
    <path d="M62 52c0 5.523-4.477 10-10 10s-10-4.477-10-10 4.477-10 10-10 10 4.477 10 10Z" fill="url(#a)"/>
    <path d="M60 52a8 8 0 0 1-8 8v4c6.627 0 12-5.373 12-12h-4Zm-8 8a8 8 0 0 1-8-8h-4c0 6.627 5.373 12 12 12v-4Zm-8-8a8 8 0 0 1 8-8v-4c-6.627 0-12 5.373-12 12h4Zm8-8a8 8 0 0 1 8 8h4c0-6.627-5.373-12-12-12v4Z" fill="#fff" mask="url(#b)"/>
    <path d="m51.584 56.376-4.066-6.099a.5.5 0 0 1 .416-.777h1.808a.5.5 0 0 1 .408.21l1.443 2.03a.5.5 0 0 0 .815 0l1.443-2.03a.5.5 0 0 1 .407-.21h1.808a.5.5 0 0 1 .416.777l-4.066 6.099a.5.5 0 0 1-.832 0Z" fill="#fff"/>
    <path fill-rule="evenodd" clip-rule="evenodd" d="M41.756 58.253A27.942 27.942 0 0 1 32 60C16.536 60 4 47.464 4 32S16.536 4 32 4s28 12.536 28 28c0 3.431-.617 6.718-1.747 9.756a12.064 12.064 0 0 1 3.18 2.825A31.897 31.897 0 0 0 64 32C64 14.327 49.673 0 32 0 14.327 0 0 14.327 0 32c0 17.673 14.327 32 32 32 4.466 0 8.719-.915 12.58-2.568a12.064 12.064 0 0 1-2.824-3.179Z" fill="url(#c)"/>
    <defs>
        <linearGradient id="a" x1="52" y1="42" x2="52" y2="62" gradientUnits="userSpaceOnUse">
            <stop stop-color="#7AEDCF"/>
            <stop offset=".201" stop-color="#68CEFA"/>
            <stop offset=".403" stop-color="#689CF8"/>
            <stop offset=".602" stop-color="#AC57C0"/>
            <stop offset=".802" stop-color="#E65659"/>
            <stop offset="1" stop-color="#F2C241"/>
        </linearGradient>
        <linearGradient id="c" x1="32" y1="0" x2="32" y2="64" gradientUnits="userSpaceOnUse">
            <stop stop-color="#7AEDCF"/>
            <stop offset=".201" stop-color="#68CEFA"/>
            <stop offset=".403" stop-color="#689CF8"/>
            <stop offset=".602" stop-color="#AC57C0"/>
            <stop offset=".802" stop-color="#E65659"/>
            <stop offset="1" stop-color="#F2C241"/>
        </linearGradient>
    </defs>
</svg>
